X: 7
T:Chos() Brisk(). WCa.07
M:2/4
L:1/4
Q:40
S:Wm. Calvert MS, 1812, Leyburn, Yorks.
R:Air
O:England
A:North Yorkshire
Z:vmp.Chris Partington, May 2003
K:C
G2c|(cB)B|c2d|e2z||c2c|B2c|(d3/4e/4f)e|(ed)z||!
(cB)A|(G^F)G|(A/B/4c/4B)A|G2z||\
(Gc)B|(A/^G/A/)B/A|A-dc|{c}B2z||!
(c3/4d/4c/d/)e|(A3/4B/4A/B/)c|(d/e/f)e|e-dz||\
c2G|(AB)c|(d/e/4f/4e)d|c2||
